X: 34933
T: Rocking The Boat
R: jig
M: 6/8
K: Amajor
|:AEE ABc|AEE ABc|AFF d2B|cBA BAF|
AEE ABc|AEE ABc|e2c e2c BAF FEF:|
cea A3|ecA FEF|cea A3|B/B/AB cAF|
cea A3|ecA FEF|e2c e2c|BAF FEF|
cea A3|ecA FEF|cea A2 f|ecA cBB|
cea A3|ecA FEF|e2c e2c|BAF FEF|

